X:17
T:Down Home Rag
M:2/4
L:1/16
Z:jason
B: Tom and Eva on KFEQ, St. Joe, Missouri
K:A
E2 | [Ae][Be][ce][Ae] [Be][ce][Ae][Be] | [ec][eA][eB][e-c-] [ec][eB][ec][eB] | [eA][eB][ec][eA] [eB][ec][eA][eB] | [ec][eA][ec][eA] [e3B3][eB] |
[eA][eB][ec][eA] [eB][ec][eA][eB] | [e4-=c4-][e2c2][e2B2] | A2 af e[ec][eA][eB] | [ec][eA][eB][ec] [e2A2] :|
|: FG | [e2A2]ae fece | aefa fecB | [e2A2]ae fecd | ecAc BGEG |
[e2A2]ae fece | aefa fece | aefa fecd | ecBc A2 :|

